X: 43
T: Heli de langtou fan san fan
L: 1/8
M: 4/4
K: C
A2 [I:setbarnb 1]| 
d2d2A G | 
A cd4 | 
d4-d e | 
d e d< c c d | 
A2z2z A | 
G2G2D D | 
G2A c d e | 
d2d cA2 | 
A c E D D D | 
G2A cA2z d/ d/ | 
[M:3/4]g2<d2A2 | 
A Gc2A2- | 
A4z d | 
[M:4/4]d g A> c A z A z | 
[M:3/4]A G A GG2 | 
[M:4/4]G8 | 
G2G2z2 |]

@@@ Tune index: 8711
